flaticon/essential/share.svg

<svg xmlns="http://www.w3.org/2000/svg" width="32" height="32" viewBox="0 0 24 24">
    <path d="M 12 0 C 5.382812 0 0 5.382812 0 12 C 0 18.617188 5.382812 24 12 24 C 18.617188 24 24 18.617188 24 12 C 24 5.382812 18.617188 0 12 0 Z M 12 23.199219 C 5.824219 23.199219 0.800781 18.175781 0.800781 12 C 0.800781 5.824219 5.824219 0.800781 12 0.800781 C 18.175781 0.800781 23.199219 5.824219 23.199219 12 C 23.199219 18.175781 18.175781 23.199219 12 23.199219 Z M 12 23.199219"/>
    <path d="M 15.601562 8 C 16.921875 8 18 6.921875 18 5.601562 C 18 4.277344 16.921875 3.199219 15.601562 3.199219 C 14.347656 3.199219 13.316406 4.164062 13.210938 5.390625 L 7.585938 9.515625 C 7.234375 9.316406 6.832031 9.199219 6.398438 9.199219 C 5.078125 9.199219 4 10.277344 4 11.601562 C 4 12.921875 5.078125 14 6.398438 14 C 6.832031 14 7.234375 13.882812 7.585938 13.683594 L 13.210938 17.808594 C 13.316406 19.035156 14.347656 20 15.601562 20 C 16.921875 20 18 18.921875 18 17.601562 C 18 16.277344 16.921875 15.199219 15.601562 15.199219 C 14.523438 15.199219 13.609375 15.910156 13.308594 16.890625 L 8.222656 13.160156 C 8.582031 12.738281 8.800781 12.195312 8.800781 11.601562 C 8.800781 11.003906 8.582031 10.460938 8.222656 10.039062 L 13.308594 6.3125 C 13.609375 7.289062 14.523438 8 15.601562 8 Z M 15.601562 4 C 16.480469 4 17.199219 4.71875 17.199219 5.601562 C 17.199219 6.480469 16.480469 7.199219 15.601562 7.199219 C 14.71875 7.199219 14 6.480469 14 5.601562 C 14 4.71875 14.71875 4 15.601562 4 Z M 4.800781 11.601562 C 4.800781 10.71875 5.519531 10 6.398438 10 C 7.28125 10 8 10.71875 8 11.601562 C 8 12.480469 7.28125 13.199219 6.398438 13.199219 C 5.519531 13.199219 4.800781 12.480469 4.800781 11.601562 Z M 15.601562 16 C 16.480469 16 17.199219 16.71875 17.199219 17.601562 C 17.199219 18.480469 16.480469 19.199219 15.601562 19.199219 C 14.71875 19.199219 14 18.480469 14 17.601562 C 14 16.71875 14.71875 16 15.601562 16 Z M 15.601562 16"/>
</svg>

<svg xmlns="http://www.w3.org/2000/svg" width="32" height="32" viewBox="0 0 24 24">
    <path d="M12 0C5.383 0 0 5.383 0 12s5.383 12 12 12 12-5.383 12-12S18.617 0 12 0zm0 23.2C5.824 23.2.8 18.175.8 12 .8 5.824 5.825.8 12 .8 18.176.8 23.2 5.825 23.2 12c0 6.176-5.024 11.2-11.2 11.2zm0 0"/>
    <path d="M15.602 8A2.404 2.404 0 0 0 18 5.602a2.405 2.405 0 0 0-2.398-2.403 2.402 2.402 0 0 0-2.391 2.192L7.586 9.516a2.396 2.396 0 0 0-1.188-.317A2.405 2.405 0 0 0 4 11.602 2.404 2.404 0 0 0 6.398 14c.434 0 .836-.117 1.188-.316l5.625 4.125A2.402 2.402 0 0 0 15.6 20 2.404 2.404 0 0 0 18 17.602a2.398 2.398 0 1 0-4.691-.71l-5.086-3.732a2.396 2.396 0 0 0 0-3.12l5.086-3.727A2.4 2.4 0 0 0 15.602 8zm0-4c.878 0 1.597.719 1.597 1.602 0 .878-.719 1.597-1.597 1.597A1.603 1.603 0 0 1 14 5.602C14 4.719 14.719 4 15.602 4zM4.8 11.602C4.8 10.719 5.52 10 6.398 10 7.281 10 8 10.719 8 11.602c0 .878-.719 1.597-1.602 1.597a1.602 1.602 0 0 1-1.597-1.597zM15.6 16c.88 0 1.598.719 1.598 1.602 0 .878-.719 1.597-1.597 1.597A1.603 1.603 0 0 1 14 17.602c0-.883.719-1.602 1.602-1.602zm0 0"/>
</svg>
